!!!!SEGMENT: pl-kk--kk-i-2--021-002_lilius-franciszek--missa-a-4-voci-gloria.krn
!!!cenid: 16xx:1635
!!!COM: Lilius, Franciszek
!!!COM-rismID: pe30020509
!!!CDT: ~1600-1657
!!!CNT: Polish
!!!OPR: Missa a 4 voci
!!!OTL: Gloria
!!!OMV: 002
!!!PDT:
!!!AGN: Sacred; Mass
!!!SMS-siglum: PL-Kk
!!!SMS-shelfmark: Kk.I.2
!!!SMS-shelfwork: 021-002 M
!!!NIFC-rismSourceID: 300258016
!!!NIFC-rismChildID: 300258037
!!!NIFC-islandoraID: pl-kk:750
!!!URL-pdf-islandora: https://repozytorium.nifc.pl/islandora/object/pl-kk%3A750/datastream/PDF/view
!!!URL-scan: https://polish.musicsources.pl/pl/lokalizacje/galeria/rekopisy/5828 @EN{Scan on Polish Music Sources Website} @PL{Skany w portalu Dziedzictwo Muzyki Polskiej w otwartym dostępie}
!!!IIIF: https://repozytorium.nifc.pl/islandora/object/pl-kk%3A750/datastream/IIIF/view
!!!ONB-nifc: Części mszy: Kyrie, Gloria, Credo, Sanctus, Benedictus, Agnus Dei; skany: C: 0046; A: 0148-0149; T: 0250-0251; B: 0349-0350;
!!!AIN: 3 empty 1 tenor
!!!key:
**kern	**text	**kern	**text	**kern	**text	**kern	**text
*part4	*part4	*part3	*part3	*part2	*part2	*part1	*part1
*staff4	*staff4	*staff3	*staff3	*staff2	*staff2	*staff1	*staff1
*Iempty	*	*Itenor	*	*Iempty	*	*Iempty	*
*I"BASVS	*	*I"TENOR	*	*I"ALTVS	*	*I"DISCANTVS	*
*I'B	*	*I'T	*	*I'A	*	*I'S	*
*clefF4	*	*clefC4	*	*clefC4	*	*clefC3	*
*k[b-]	*	*k[b-]	*	*k[b-]	*	*k[b-]	*
*F:	*	*F:	*	*F:	*	*F:	*
*M2/1	*	*M2/1	*	*M2/1	*	*M2/1	*
*met(C|)	*	*met(C|)	*	*met(C|)	*	*met(C|)	*
=1-	=1-	=1-	=1-	=1-	=1-	=1-	=1-
*xywh-#349:1580,3911,6177,1217	*	*xywh-#250:7773,2265,6321,922	*	*xywh-#148:1433,2144,6262,979	*	*xywh-#46:1385,614,6378,1027	*
!LO:TX:t=P:problem=kreska pseudotaktowa	!	!	!	!	!	!	!
!	!	!	!	!LO:TX:t=P:problem=kreska pseudotaktowa	!	!	!
1r	.	1.G	Et	1r	.	1r	.
1.GG	Et	.	.	1.B-	Et	1.d	Et
!	!	!LO:TX:t=P:problem=kreska pseudotaktowa	!	!	!	!	!
.	.	2G/	in	.	.	.	.
=2-	=2-	=2-	=2-	=2-	=2-	=2-	=2-
.	.	1B-	ter-	.	.	.	.
!	!	!	!	!LO:TX:t=P:problem=kreska pseudotaktowa	!	!LO:TX:t=P:problem=kreska pseudotaktowa	!
2GG/	in	.	.	2G/	in	2d\	in
1D	ter-	2A,/	-ra	2.F/	ter-	1f	ter-
.	.	1d\	pax	.	.	.	.
.	.	.	.	4G/	.	.	.
=3-	=3-	=3-	=3-	=3-	=3-	=3-	=3-
1AA	-ra	.	.	2A/	.	1e	-ra
!	!	!LO:TX:t=P:problem=kreska pseudotaktowa	!	!LO:TX:t=P:problem=kreska pseudotaktowa	!	!	!
.	.	2c\	.	2A/	-ra	.	.
*	*	*lig	*	*	*	*	*
!LO:TX:t=P:problem=kreska pseudotaktowa	!	!	!	!	!	!	!
1BB-	pax	1B-	ho-	1F	pax	1d	pax
=4-	=4-	=4-	=4-	=4-	=4-	=4-	=4-
!	!	!	!	!	!	!LO:TX:t=P:problem=kreska pseudotaktowa	!
1FF	ho-	1A	.	1F	ho-	1c	ho-
*	*	*Xlig	*	*	*	*	*
1.GG	-mi-	1.G	-mi-	1.D	-mi-	1.B-	-mi-
=5-	=5-	=5-	=5-	=5-	=5-	=5-	=5-
.	.	.	.	.	.	.	.
!LO:TX:t=P:problem=kreska pseudotaktowa	!	!LO:TX:t=P:problem=kreska pseudotaktowa	!	!	!	!LO:TX:t=P:problem=kreska pseudotaktowa	!
2GG/	-ni-	2G/	-ni-	2D/	-ni-	2B-/	-ni-
!	!	!	!	!LO:TX:t=P:problem=kreska pseudotaktowa	!	!	!
1D	-bus	1F#X,	-bus	1D	-bus	2A,/	-bus
.	.	.	.	.	.	1d\	bo-
=6-	=6-	=6-	=6-	=6-	=6-	=6-	=6-
1.G	Bo-	1.B-	bo-	0r	.	.	.
!	!	!	!	!	!	!LO:TX:t=P:problem=kreska pseudotaktowa	!
.	.	.	.	.	.	2d\	-nae
.	.	.	.	.	.	2e\	vo-
!LO:TX:t=P:problem=kreska pseudotaktowa	!	!LO:TX:t=P:problem=kreska pseudotaktowa	!	!	!	!	!
2G\	-nae	2B-\	-nae	.	.	2e\	-lun-
=7-	=7-	=7-	=7-	=7-	=7-	=7-	=7-
2A\	vo-	2c\	vo-	0r	.	2.f\	-ta-
2A\	-lun-	2c\	-lun-	.	.	.	.
!	!	!	!	!	!	!LO:TX:t=P:problem=kreska pseudotaktowa	!
.	.	.	.	.	.	4e\	.
2.B-\	-ta-	4f\	-ta-	.	.	4d\	.
.	.	4e\	.	.	.	4e\	.
.	.	4d\	.	.	.	1f\	.
!LO:TX:t=P:problem=kreska pseudotaktowa	!	!LO:TX:t=P:problem=kreska pseudotaktowa	!	!	!	!	!
4A\	.	4c\	.	.	.	.	.
=8	=8	=8	=8	=8-	=8-	=8-	=8-
1G	.	1B-	.	2r	.	.	.
!	!	!	!	!LO:TX:t=P:problem=kreska pseudotaktowa	!	!LO:TX:t=P:problem=kreska pseudotaktowa	!
.	.	.	.	2G/	lau-	2e\	.
2F\	-tis	2A,/	-tis	2.c\	-da-	2f\	-tis
!	!	!LO:TX:t=P:problem=kreska pseudotaktowa	!	!	!	!LO:TX:t=P:problem=kreska pseudotaktowa	!
2C/	lau-	2c\	lau-	.	.	2e\	lau-
!	!	!	!	!LO:TX:t=P:problem=kreska pseudotaktowa	!	!	!
.	.	.	.	4B-\	.	.	.
=9-	=9-	=9-	=9-	=9-	=9-	=9-	=9-
2.F\	-da-	4c\	-da-	4A/	.	2.a\	-da-
.	.	4B-\	.	4B-\	.	.	.
.	.	1A	.	1c	.	.	.
!LO:TX:t=P:problem=kreska pseudotaktowa	!	!	!	!	!	!	!
4E\	.	.	.	.	.	4g\	.
2D/	.	.	.	.	.	2f\	.
!	!	!	!	!LO:TX:t=P:problem=kreska pseudotaktowa	!	!	!
!	!	!LO:TX:t=P:problem=kreska pseudotaktowa	!	!LO:TX:a:t=P:problem=# above	!	!	!
2D/	-mus	2F/	-mus	2Bn\	-mus	2f\	-mus
=10-	=10-	=10-	=10-	=10-	=10-	=10-	=10-
*	*	*custos:A	*	*	*	*custos:f	*
!	!	!	!	!	!	!LO:TX:t=P:problem=kreska pseudotaktowa	!
1C	te	1G,	te	1c	te	1e	te
*	*	*xywh-#250:7746,3036,6163,895	*	*	*	*xywh-#46:1408,1555,6269,865	*
!LO:TX:t=P:problem=kreska pseudotaktowa	!	!	!	!LO:TX:t=P:problem=kreska pseudotaktowa	!	!	!
1F	be-	1A	be-	1c	be-	1f	be-
=11-	=11-	=11-	=11-	=11-	=11-	=11-	=11-
*custos:C	*	*	*	*	*	*	*
2BB-/	-ne-	2B-\	-ne-	2d\	-ne-	2f\	-ne-
*xywh-#349:7712,770,6524,921	*	*	*	*	*	*	*
1C	-di-	2.G/	-di-	1c	-di-	1e-X	-di-
.	.	4G/	-ci-	.	.	.	.
!	!	!	!	!LO:TX:t=P:problem=kreska pseudotaktowa	!	!LO:TX:t=P:problem=kreska pseudotaktowa	!
2E-X\	-ci-	1G/	-mus	2G/	-ci-	2c/	-ci-
=12-	=12-	=12-	=12-	=12-	=12-	=12-	=12-
1D	-mus	.	.	1A	-mus	1d	-mus
!	!	!LO:TX:t=P:problem=kreska pseudotaktowa	!	!	!	!	!
.	.	2F#X/	.	.	.	.	.
*	*	*	*	*custos:d	*	*	*
0GG	te	1G,	te	2B-\	te	0d	te
*	*	*	*	*xywh-#148:1599,2977,5993,883	*	*	*
.	.	.	.	1d\	A-	.	.
=13-	=13-	=13-	=13-	=13-	=13-	=13-	=13-
!LO:TX:t=P:problem=kreska pseudotaktowa	!	!	!	!	!	!LO:TX:t=P:problem=kreska pseudotaktowa	!
.	.	1.d	A-	.	.	.	.
!	!	!	!	!LO:TX:t=P:problem=kreska pseudotaktowa	!	!	!
.	.	.	.	2c\	-do-	.	.
1.G	A-	.	.	1.B-	-ra-	1r	.
!	!	!LO:TX:t=P:problem=kreska pseudotaktowa	!	!	!	!	!
.	.	2c\	-do-	.	.	.	.
=14-	=14-	=14-	=14-	=14-	=14-	=14-	=14-
.	.	2B-\	-ra-	.	.	1.g	A-
!	!	!	!	!LO:TX:t=P:problem=kreska pseudotaktowa	!	!	!
2F\	-do-	2d\	.	2A/	.	.	.
1E-X	-ra-	1.e-X	.	4G/	.	.	.
.	.	.	.	4A/	.	.	.
!	!	!	!	!	!	!LO:TX:t=P:problem=kreska pseudotaktowa	!
.	.	.	.	4B-\	.	2g\	-do-
!	!	!	!	!LO:TX:t=P:problem=kreska pseudotaktowa	!	!	!
.	.	.	.	4G/	.	.	.
=15-	=15-	=15-	=15-	=15-	=15-	=15-	=15-
1.F	.	.	.	2A/	.	1.f	-ra-
!	!	!LO:TX:t=P:problem=kreska pseudotaktowa	!	!	!	!	!
.	.	2d\	.	1B-	.	.	.
.	.	2.c\	.	.	.	.	.
!	!	!	!	!LO:TX:t=P:problem=kreska pseudotaktowa	!	!	!
2F\	-mus	.	.	2A/	-mus	2f\	-mus
.	.	4c\	-mus	.	.	.	.
=16-	=16-	=16-	=16-	=16-	=16-	=16-	=16-
!	!	!LO:TX:t=P:problem=kreska pseudotaktowa	!	!	!	!LO:TX:t=P:problem=kreska pseudotaktowa	!
2BB-/	te	1d	te	2B-,\	te	1f	te
!LO:TX:t=P:problem=kreska pseudotaktowa	!	!	!	!LO:TX:t=P:problem=kreska pseudotaktowa	!	!	!
2B-\	glo-	.	.	2e\	glo-	.	.
2G\	-ri-	2r	.	2B-\	-ri-	2r	.
2A\	-fi-	2f\	glo-	2c\	-fi-	2a\	glo-
=17-	=17-	=17-	=17-	=17-	=17-	=17-	=17-
2B-\	-ca-	2d\	-ri-	2d\	-ca-	2f\	-ri-
!	!	!LO:TX:t=P:problem=kreska pseudotaktowa	!	!	!	!LO:TX:t=P:problem=kreska pseudotaktowa	!
4A\	.	2e\	fi-	4c\	.	2g\	-fi-
!LO:TX:t=P:problem=kreska pseudotaktowa	!	!	!	!LO:TX:t=P:problem=kreska pseudotaktowa	!	!	!
4G\	.	.	.	4B-\	.	.	.
2F\	.	2f\	-ca-	2A/	.	2a\	-ca-
!	!	!	!	!LO:N:acc=#	!	!	!
2G\	-mus	4e\	.	2Bn\	-mus	4g\	-mus-
!	!	!LO:TX:t=P:problem=kreska pseudotaktowa	!	!	!	!	!
.	.	4d\	.	.	.	4f\	.
=18-	=18-	=18-	=18-	=18-	=18-	=18-	=18-
2C/	te	2c\	.	2c,\	te	2e\	.
!LO:TX:t=P:problem=kreska pseudotaktowa	!	!LO:TX:t=P:problem=kreska pseudotaktowa	!	!LO:TX:t=P:problem=kreska pseudotaktowa	!	!LO:TX:t=P:problem=kreska pseudotaktowa	!
2C/	glo-	2c\	-mus	2en\	glo-	2e\	-te
2AA/	-ri-	2r	.	2c\	-ri-	2r	.
*	*	*custos:G	*	*	*	*	*
!	!	!LO:TX:t=P:problem=kreska pseudotaktowa	!	!	!	!	!
!	!	!	!	!LO:TX:t=P:problem=kreska pseudotaktowa	!	!	!
2BB-/	-fi-	2B-\	glo-	2d\	-fi-	2g\	glo-
=19-	=19-	=19-	=19-	=19-	=19-	=19-	=19-
*	*	*xywh-#250:7808,3828,6266,1384	*	*	*	*	*
2C/	-ca-	2G/	-ri-	2e\	-ca-	2e\	-ri-
!	!	!	!	!	!	!LO:TX:t=P:problem=kreska pseudotaktowa	!
4BB-/	.	2A/	-fi-	4d\	.	2f\	-fi-
!LO:TX:t=P:problem=kreska pseudotaktowa	!	!	!	!LO:TX:t=P:problem=kreska pseudotaktowa	!	!	!
4AA/	.	.	.	4c\	.	.	.
2GG/	.	2B-\	-ca-	2d\	.	2g\	-ca-
!	!	!	!	!LO:TX:t=P:problem=kreska pseudotaktowa	!	!	!
2AA/	.	4A/	.	2c\	.	4f\	.
!	!	!LO:TX:t=P:problem=kreska pseudotaktowa	!	!	!	!LO:TX:t=P:problem=kreska pseudotaktowa	!
.	.	4G/	.	.	.	4e\	.
=20-	=20-	=20-	=20-	=20-	=20-	=20-	=20-
1BB-	.	1F	.	2.B-\	.	4d\	.
*	*	*	*	*	*	*custos:f	*
.	.	.	.	.	.	4e\	.
*	*	*	*	*	*	*xywh-#46:1679,2283,6049,860	*
.	.	.	.	.	.	1f	-mus
*	*	*	*	*custos:G	*	*	*
.	.	.	.	4A/	.	.	.
*	*	*	*	*xywh-#148:1977,3739,5711,1069	*	*	*
2.C/	.	2.c\	.	2G/	.	.	.
!	!	!	!	!	!	!LO:TX:t=P:problem=kreska pseudotaktowa	!
.	.	.	.	2G/	-mus	2e\	.
*custos:FF	*	*	*	*	*	*	*
!LO:TX:t=P:problem=kreska pseudotaktowa	!	!	!	!	!	!	!
!	!	!LO:TX:t=P:problem=kreska pseudotaktowa	!	!	!	!	!
4C/	-mus	4c\	-mus	.	.	.	.
=21-	=21-	=21-	=21-	=21-	=21-	=21-	=21-
*xywh-#349:7764,1614,6189,921	*	*	*	*	*	*	*
!LO:TX:t=P:problem=kreska pseudotaktowa	!	!LO:TX:t=P:problem=kreska pseudotaktowa	!	!LO:TX:t=P:problem=kreska pseudotaktowa	!	!	!
1FF	te	1c	te	1A	te	1f	te
2r	.	2r	.	2r	.	2r	.
1BB-/	gra-	1d\	Gra-	1B-\	Gra-	1f\	Gra-
=22-	=22-	=22-	=22-	=22-	=22-	=22-	=22-
.	.	.	.	.	.	.	.
!LO:TX:t=P:problem=kreska pseudotaktowa	!	!LO:TX:t=P:problem=kreska pseudotaktowa	!	!LO:TX:t=P:problem=kreska pseudotaktowa	!	!LO:TX:t=P:problem=kreska pseudotaktowa	!
2BB-/	-ti-	2d\	-ti-	2B-\	-ti-	2f\	-ti-
!	!	!LO:TX:t=P:problem=kreska pseudotaktowa	!	!	!	!	!
1BB-	-as	1d	-as	1B-	-as	1f	-as
=23-	=23-	=23-	=23-	=23-	=23-	=23-	=23-
1.GG	a-	1.B-	a-	1.d	a-	1.g	a-
!LO:TX:t=P:problem=kreska pseudotaktowa	!	!LO:TX:t=P:problem=kreska pseudotaktowa	!	!LO:TX:t=P:problem=kreska pseudotaktowa	!	!	!
2GG/	-gi-	2B-\	-gi-	2d\	-gi-	2g\	-gi-
=24-	=24-	=24-	=24-	=24-	=24-	=24-	=24-
!	!	!	!	!	!	!LO:TX:t=P:problem=kreska pseudotaktowa	!
1D	-mus	1A,	-mus	2d\	-mus	1f#X	-mus
.	.	.	.	1d	ti-	.	.
0E-X	ti-	0G	ti-	.	.	0g	ti-
.	.	.	.	4c\	.	.	.
!	!	!	!	!LO:TX:t=P:problem=kreska pseudotaktowa	!	!	!
.	.	.	.	4B-\	.	.	.
=25-	=25-	=25-	=25-	=25-	=25-	=25-	=25-
.	.	.	.	1c	.	.	.
!LO:TX:t=P:problem=kreska pseudotaktowa	!	!LO:TX:t=P:problem=kreska pseudotaktowa	!	!LO:TX:t=P:problem=kreska pseudotaktowa	!	!LO:TX:t=P:problem=kreska pseudotaktowa	!
1D	-bi	1A	-bi	1d	.	1f#X	.
=26-	=26-	=26-	=26-	=26-	=26-	=26-	=26-
!	!	!LO:TX:a:t=P:problem=# above	!	!	!	!	!
!	!	!LO:N:acc=#	!	!	!	!LO:TX:t=P:problem=tekst wizualnie przesunięty	!
2.G\	prop-	2.Bn\	prop-	2.d\	-bi	2.g\	-bi
!	!	!LO:TX:t=P:problem=kreska pseudotaktowa	!	!	!	!	!
!	!	!LO:TX:a:t=P:problem=# above	!	!	!	!	!
!	!	!LO:N:acc=#	!	!	!	!	!
4G\	-ter	4Bn\	-ter	4d\	prop-	4g\	prop-
!	!	!LO:TX:a:t=P:problem=# above	!	!	!	!	!
!	!	!LO:N:acc=#	!	!	!	!	!
2G\	mag-	2Bn\	mag-	2d\	-ter	2g\	-pter
!	!	!LO:TX:t=P:problem=kreska pseudotaktowa	!	!LO:TX:t=P:problem=kreska pseudotaktowa	!	!LO:TX:t=P:problem=kreska pseudotaktowa	!
2C/	-nam	2c\	-na(m)	2e\	mag-	2g\	mag-
=27-	=27-	=27-	=27-	=27-	=27-	=27-	=27-
1.F	glo-	1.c	glo-	1.f	-nam	1.a	-nam
!LO:TX:t=P:problem=kreska pseudotaktowa	!	!LO:TX:t=P:problem=kreska pseudotaktowa	!	!	!	!	!
2F\	-ri-	2c\	-ri-	2f\	glo-	2a\	glo-
=28-	=28-	=28-	=28-	=28-	=28-	=28-	=28-
!	!	!	!	!LO:TX:t=P:problem=kreska pseudotaktowa	!	!LO:TX:t=P:problem=kreska pseudotaktowa	!
1BB-	-am	2.B-\	-am	1d	-ri-	1f	-ri-
!	!	!LO:TX:t=P:problem=kreska pseudotaktowa	!	!	!	!	!
.	.	4A/	.	.	.	.	.
*	*	*custos:A	*	*	*	*	*
1C	tu-	2G/	.	1.c	-am	1e-X	-am
*	*	*xywh-#251:1752,643,5860,1012	*	*	*	*	*
!	!	!LO:TX:t=P:problem=kreska pseudotaktowa	!	!	!	!	!
.	.	2A/	.	.	.	.	.
=29-	=29-	=29-	=29-	=29-	=29-	=29-	=29-
!LO:TX:t=P:problem=kreska pseudotaktowa	!	!	!	!	!	!	!
0D	-am	2F#X/	tu-	.	.	0d	tu-
.	.	1G	.	2B-\	tu-	.	.
!	!	!	!	!LO:TX:t=P:problem=kreska pseudotaktowa	!	!	!
.	.	.	.	1A	.	.	.
.	.	2F#X/	.	.	.	.	.
=30-	=30-	=30-	=30-	=30-	=30-	=30-	=30-
!	!	!LO:TX:t=P:problem=kreska pseudotaktowa	!	!	!	!LO:TX:t=P:problem=kreska pseudotaktowa	!
2GG/	.	1G	-am	2B-,\	-am	1d	-am
2.G\	D(o-	.	.	2.B-\	Do-	.	.
.	.	2r	.	.	.	1r	.
4G\	-mi)-	.	.	4B-\	-mi-	.	.
*	*	*	*	*custos:B	*	*	*
!	!	!	!	!LO:TX:t=P:problem=kreska pseudotaktowa	!	!	!
!LO:TX:t=P:problem=kreska pseudotaktowa	!	!	!	!	!	!	!
2F#X\	-ne	2.d\	Do-	2A/	-ne	.	.
=31-	=31-	=31-	=31-	=31-	=31-	=31-	=31-
*	*	*	*	*xywh-#148:7775,618,6422,941	*	*	*
2G\	De-	.	.	2B-\	De-	0r	.
.	.	4d\	-mi-	.	.	.	.
!	!	!LO:TX:t=P:problem=kreska pseudotaktowa	!	!LO:TX:t=P:problem=kreska pseudotaktowa	!	!	!
2A\	-us	2c\	-ne	2c\	-us	.	.
2G\	Rex	2d\	De-	2Bn\	Rex	.	.
!	!	!LO:TX:t=P:problem=kreska pseudotaktowa	!	!	!	!	!
2C/	cae-	2e-X\	-us	2c\	.	.	.
=32-	=32-	=32-	=32-	=32-	=32-	=32-	=32-
*custos:C	*	*	*	*	*	*	*
!LO:TX:t=P:problem=kreska pseudotaktowa	!	!	!	!	!	!	!
!	!	!LO:N:acc=#	!	!	!	!	!
0GG	-le-	4Bn\	rex	2d\	cae-	1r	.
!	!	!LO:N:acc=#	!	!	!	!	!
.	.	4Bn\	cae-	.	.	.	.
!	!	!	!	!LO:TX:t=P:problem=kreska pseudotaktowa	!	!	!
.	.	1c	-le-	2e-X\	-le-	.	.
.	.	.	.	1d	.	2r	.
!	!	!LO:TX:t=P:problem=kreska pseudotaktowa	!	!	!	!	!
!	!	!LO:N:acc=#	!	!	!	!	!
.	.	2Bn\	.	.	.	1g\	De-
=33-	=33-	=33-	=33-	=33-	=33-	=33-	=33-
*xywh-#349:7777,2400,6344,856	*	*	*	*	*	*	*
!	!	!	!	!LO:TX:t=P:problem=kreska pseudotaktowa	!	!	!
1C	-ſtis	2c,\	-ſtis	1c	-ſtis	.	.
*	*	*	*	*	*	*custos:a	*
!	!	!	!	!	!	!LO:TX:t=P:problem=kreska pseudotaktowa	!
.	.	1c	De-	.	.	2e\	-us
*	*	*	*	*	*	*xywh-#46:1726,3016,5928,888	*
1.F	De-	.	.	2r	.	2a\	Pa-
!	!	!LO:TX:t=P:problem=kreska pseudotaktowa	!	!	!	!	!
.	.	2A/	-us	2c\	De-	4a\	-ter
!	!	!	!	!	!	!LO:TX:t=P:problem=kreska pseudotaktowa	!
.	.	.	.	.	.	4g\	.
=34-	=34-	=34-	=34-	=34-	=34-	=34-	=34-
.	.	2d\	Pa-	2A/	-us	2.f\	om-
!LO:TX:t=P:problem=kreska pseudotaktowa	!	!	!	!LO:TX:t=P:problem=kreska pseudotaktowa	!	!	!
2D/	-us	4d\	-ter	2.d\	Pa-	.	.
.	.	4c\	.	.	.	4e\	-ni-
1G	Pa-	2.B-\	om-	.	.	2d\	.
.	.	.	.	4d\	-ter	.	.
.	.	.	.	2d\	om-	4B-/	.
!	!	!LO:TX:t=P:problem=kreska pseudotaktowa	!	!	!	!LO:TX:t=P:problem=kreska pseudotaktowa	!
.	.	4A/	-ni-	.	.	4c/	.
=35-	=35-	=35-	=35-	=35-	=35-	=35-	=35-
2G\	-ter	2G/	.	2B-\	.	4d/	.
.	.	.	.	.	.	4e\	.
!LO:TX:t=P:problem=kreska pseudotaktowa	!	!	!	!LO:TX:t=P:problem=kreska pseudotaktowa	!	!	!
2F\	om-	1d	.	2A/	-ni-	2f\	.
2.E-X\	-ni-	.	.	2.G/	po-	2.g\	.
!	!	!LO:TX:t=P:problem=kreska pseudotaktowa	!	!	!	!	!
.	.	2c\	-po-	.	.	.	.
4E-\	-po-	.	.	4G/	-tens	4g\	po-
=36-	=36-	=36-	=36-	=36-	=36-	=36-	=36-
*	*	*custos:D	*	*	*	*	*
!LO:TX:t=P:problem=kreska pseudotaktowa	!	!	!	!	!	!LO:TX:t=P:problem=kreska pseudotaktowa	!
0D	-tens	2d\	-tens	2A/	.	1f	-tens
*	*	*xywh-#251:1738,1525,5936,915	*	*	*	*	*
!	!	!	!	!LO:TX:t=P::problem=kreska pseudotaktowa&colon;między nutą a kropką	!	!	!
.	.	2.D/	Do-	2.A/	Do-	.	.
.	.	.	.	.	.	2r	.
.	.	4D/	-mi-	4A/	-mi-	.	.
!	!	!LO:TX:t=P:problem=kreska pseudotaktowa	!	!LO:TX:t=P:problem=kreska pseudotaktowa	!	!	!
.	.	2D/	-ne	2A/	-ne	2.d\	D(o-
=37-	=37-	=37-	=37-	=37-	=37-	=37-	=37-
0r	.	1G	fi-	1B-	fi-	.	.
.	.	.	.	.	.	4d\	-mi)-
!	!	!	!	!	!	!LO:TX:t=P:problem=kreska pseudotaktowa	!
.	.	.	.	.	.	2d\	-ne
!	!	!LO:TX:t=P:problem=kreska pseudotaktowa	!	!	!	!	!
.	.	1D	-li	2A\	-li	1f	fi-
.	.	.	.	1d\	U-	.	.
=38-	=38-	=38-	=38-	=38-	=38-	=38-	=38-
0r	.	0r	.	.	.	2e\	-li
!	!	!	!	!LO:TX:t=P:problem=kreska pseudotaktowa	!	!	!
.	.	.	.	2c\	-ni-	2.a\	U-
!	!	!	!	!LO:TX:t=P:problem=kreska pseudotaktowa	!	!	!
.	.	.	.	1B-	-ge-	.	.
.	.	.	.	.	.	4g\	-ni-
.	.	.	.	.	.	1g\	-ge-
=39-	=39-	=39-	=39-	=39-	=39-	=39-	=39-
*	*	*	*	*xywh-#148:7801,1489,6224,870	*	*	*
0r	.	1r	.	2.A/	-ni-	.	.
!	!	!	!	!	!	!LO:TX:t=P:problem=kreska pseudotaktowa	!
.	.	.	.	.	.	2f#X\	-ni-
.	.	.	.	4A/	-te	.	.
!	!	!	!	!LO:TX:t=P:problem=kreska pseudotaktowa	!	!	!
.	.	2r	.	1G	Je-	1g	-te
.	.	2.d\	Je-	.	.	.	.
=40-	=40-	=40-	=40-	=40-	=40-	=40-	=40-
2.G\	Je-	.	.	1.B-	.	2r	.
.	.	4c\	.	.	.	.	.
.	.	4B-\	.	.	.	2.g\	Je-
!LO:TX:t=P:problem=kreska pseudotaktowa	!	!LO:TX:t=P:problem=kreska pseudotaktowa	!	!	!	!	!
4F\	.	4A/	.	.	.	.	.
4E-X\	.	1.G	.	.	.	.	.
4D/	.	.	.	.	.	4f\	.
1C/	.	.	.	1c\	-ſu	1e-X\	.
=41-	=41-	=41-	=41-	=41-	=41-	=41-	=41-
.	.	.	.	.	.	.	.
*	*	*	*	*	*	*custos:e	*
!LO:TX:t=P:problem=kreska pseudotaktowa	!	!	!	!	!	!LO:TX:t=P:problem=kreska pseudotaktowa	!
!LO:N:acc=#	!	!	!	!LO:TX:t=P::problem=kreska pseudotaktowa&colon;między nutą a kropką	!	!	!
2BBn/	-ſu	2G/	-ſu	2.d\	chri-	2d\	-ſu
*	*	*	*	*	*	*xywh-#46:1691,3801,5997,992	*
1C	Chri-	0.G	Chri-	.	.	1e-X	chri-
.	.	.	.	4c\	.	.	.
.	.	.	.	1c\	.	.	.
=42-	=42-	=42-	=42-	=42-	=42-	=42-	=42-
!LO:TX:t=P:problem=kreska pseudotaktowa	!	!LO:TX:t=P:problem=kreska pseudotaktowa	!	!	!	!	!
0GG	.	.	.	.	.	0d	.
.	.	.	.	4B-\	.	.	.
!	!	!	!	!LO:TX:t=P:problem=kreska pseudotaktowa	!	!	!
.	.	.	.	4A\	.	.	.
!	!	!	!	!LO:N:acc=#	!	!	!
.	.	.	.	1Bn	.	.	.
=43-	=43-	=43-	=43-	=43-	=43-	=43-	=43-
2C,/	ſte	2E,/	ſte	2c,\	ſte	2c/	ſte
!	!	!	!	!LO:TX:t=P::problem=kreska pseudotaktowa&colon;między nutą a kropką	!	!	!
2.C/	D(o-	2.G/	Do-	2.c\	Do-	2.e\	Do-
4C/	-mi)-	4G/	-mi-	4c\	-mi-	4e\	-mi-
!LO:TX:t=P:problem=kreska pseudotaktowa	!	!LO:TX:t=P:problem=kreska pseudotaktowa	!	!	!	!LO:TX:t=P:problem=kreska pseudotaktowa	!
2F\	-ne	2A/	-ne	2c\	-ne	2f\	-ne
=44-	=44-	=44-	=44-	=44-	=44-	=44-	=44-
2BB-/	De-	2B-\	De-	2d\	De-	2f\	De-
!	!	!	!	!LO:TX:t=P:problem=kreska pseudotaktowa	!	!	!
2AA/	-us	2c\	-(us)	2c\	-us	2f\	-us
2BB-/	ag-	2d\	ag-	2B-\	ag-	2f\	ag-
!LO:TX:t=P:problem=kreska pseudotaktowa	!	!LO:TX:t=P:problem=kreska pseudotaktowa	!	!	!	!LO:TX:t=P:problem=kreska pseudotaktowa	!
2FF/	-nus	2c\	-nus	2A/	-nus	2f\	-nus
=45-	=45-	=45-	=45-	=45-	=45-	=45-	=45-
2.GG/	De-	1.B-	De-	1.G	De-	0d	De-
4AA/	.	.	.	.	.	.	.
4BB-/	.	.	.	.	.	.	.
4C/	.	.	.	.	.	.	.
*custos:GG	*	*	*	*	*	*	*
!LO:TX:t=P:problem=kreska pseudotaktowa	!	!	!	!LO:TX:t=P:problem=kreska pseudotaktowa	!	!	!
!	!	!	!	!LO:TX:b:t=P:problem=# below	!	!	!
2D/	.	2A/	.	2F#X/	-i	.	.
=46-	=46-	=46-	=46-	=46-	=46-	=46-	=46-
*xywh-#349:7790,3160,6222,837	*	*	*	*	*	*	*
!LO:TX:t=P:problem=kreska pseudotaktowa	!	!	!	!	!	!	!
1GG	-i	0G	-i	1G	.	2d\	-i
.	.	.	.	.	.	2.g\	fi-
2.C/	fi-	.	.	1.E	fi-	.	.
.	.	.	.	.	.	4f\	-li-
!	!	!	!	!	!	!LO:TX:t=P:problem=kreska pseudotaktowa	!
.	.	.	.	.	.	2e\	-us
4BB-/	-li-	.	.	.	.	.	.
=47-	=47-	=47-	=47-	=47-	=47-	=47-	=47-
1AA	-us	2r	.	.	.	2c/	Pat-
!	!	!	!	!LO:TX:t=P:problem=kreska pseudotaktowa	!	!	!
!	!	!	!	!LO:TX:a:t=P:problem=# above	!	!	!
.	.	2.c\	fi-	2F#X/	-li-	2c/	-ris
1GG	Pa-	.	.	2G/	-us	2r	.
.	.	4c\	-li-	.	.	.	.
!	!	!	!	!	!	!LO:TX:t=P:problem=kreska pseudotaktowa	!
.	.	2B-\	-us	2d\	Pa-	2.g\	/fi-
=48-	=48-	=48-	=48-	=48-	=48-	=48-	=48-
!	!	!	!	!LO:TX:a:t=P:problem=# above	!	!	!
0AA	.	0A	Pat-	2c#X\	.	.	.
.	.	.	.	.	.	4g\	-li-
.	.	.	.	1d	.	2f\	-us
.	.	.	.	.	.	1e	Pat-
!	!	!	!	!LO:TX:a:t=P:problem=# above	!	!	!
.	.	.	.	2c#X\	.	.	.
=49-	=49-	=49-	=49-	=49-	=49-	=49-	=49-
!	!	!LO:TX:t=P:problem=fermata powyżej i poniżej	!	!	!	!	!
0D;	-tris.	0A;	-ris	0d;	-tris	0f;	-ris/
=50||-	=50||-	=50||-	=50||-	=50||-	=50||-	=50||-	=50||-
*M2/1	*	*M2/1	*	*M2/1	*	*M2/1	*
*met(C|)	*	*met(C|)	*	*met(C|)	*	*met(C|)	*
*	*	*xywh-#251:1766,2338,5874,847	*	*xywh-#148:7820,2232,6134,909	*	*xywh-#46:7815,593,6476,992	*
0r	.	0r	.	1G	Qui	0r	.
.	.	.	.	1d	tol-	.	.
=51-	=51-	=51-	=51-	=51-	=51-	=51-	=51-
!	!	!LO:TX:t=P:problem=kreska pseudotaktowa	!	!	!	!	!
1D	Qui	1r	.	2d\	-lis	0r	.
!	!	!	!	!LO:TX:t=P:problem=kreska pseudotaktowa	!	!	!
.	.	.	.	2A/	pec-	.	.
1G	tol-	2r	.	1.B-	-ca-	.	.
.	.	2G/	Qui	.	.	.	.
=52-	=52-	=52-	=52-	=52-	=52-	=52-	=52-
2G\	-lis	1d	tol-	.	.	1r	.
!LO:TX:t=P:problem=kreska pseudotaktowa	!	!	!	!	!	!	!
2D/	pec-	.	.	2B-\	-ta	.	.
2F\	-ca-	2d\	-lis	1A	mu(n)-	2r	.
!	!	!LO:TX:t=P:problem=kreska pseudotaktowa	!	!	!	!LO:TX:t=P:problem=kreska pseudotaktowa	!
2F\	-ta	2A/	pec-	.	.	2d\	Qui
=53-	=53-	=53-	=53-	=53-	=53-	=53-	=53-
!	!	!	!	!LO:TX:t=P:problem=kreska pseudotaktowa	!	!	!
2.E\	mun-	2c\	-ca-	0G	-di	1g	tol-
.	.	2c\	-ta	.	.	.	.
4F\	.	.	.	.	.	.	.
!	!	!LO:TX:t=P:problem=kreska pseudotaktowa	!	!	!	!	!
1G	.	1B-	mun-	.	.	2g\	-lis
.	.	.	.	.	.	2d\	pec-
=54-	=54-	=54-	=54-	=54-	=54-	=54-	=54-
!LO:TX:t=P:problem=kreska pseudotaktowa	!	!	!	!	!	!	!
1D	-di	2A,/	.	2r	.	2f\	-ca-
.	.	1d	.	2D/	/Qui	2f\	-ta
!	!	!	!	!LO:TX:t=P:problem=kreska pseudotaktowa	!	!	!
2r	.	.	.	1A	tol-	1e	mu(n)-
!	!	!LO:TX:t=P:problem=kreska pseudotaktowa	!	!	!	!	!
!	!	!LO:TX:a:t=P:problem=# above	!	!	!	!	!
2AA/	qui	2c#X\	.	.	.	.	.
=55-	=55-	=55-	=55-	=55-	=55-	=55-	=55-
!	!	!	!	!	!	!LO:TX:t=P:problem=kreska pseudotaktowa	!
1D	tol-	1d	-di	2A\	-lis	1d	-di
!	!	!	!	!LO:TX:t=P:problem=kreska pseudotaktowa	!	!	!
.	.	.	.	2D/	pec-	.	.
2D\	-lis	2D/	qui	2F/	-ca-	1r	.
!LO:TX:t=P:problem=kreska pseudotaktowa	!	!LO:TX:t=P:problem=kreska pseudotaktowa	!	!	!	!	!
2AA/	pec-	2.A/	tol-	2F/	-ta	.	.
=56-	=56-	=56-	=56-	=56-	=56-	=56-	=56-
!	!	!	!	!LO:TX:t=P:problem=kreska pseudotaktowa	!	!	!
2C/	-ca-	.	.	1E	mu(n)-	2r	.
.	.	4A/	-lis	.	.	.	.
!	!	!LO:TX:t=P:problem=kreska pseudotaktowa	!	!	!	!LO:TX:t=P:problem=kreska pseudotaktowa	!
2C/	-ta	2E/	pec-	.	.	2A/	/Qui
2.BB-/	mun-	2G/	-ca-	2D,/	-di/	1d	.
.	.	2G/	-ta	2.D/	pec-	.	.
4C/	.	.	.	.	.	.	.
=57-	=57-	=57-	=57-	=57-	=57-	=57-	=57-
*	*	*lig	*	*	*	*	*
*custos:AA	*	*	*	*	*	*	*
!LO:TX:t=P:problem=kreska pseudotaktowa	!	!	!	!	!	!	!
1D	.	1F	mun-	.	.	2d\	tol-
.	.	.	.	4E/	.	.	.
!	!	!	!	!	!	!LO:TX:t=P:problem=kreska pseudotaktowa	!
.	.	.	.	4F/	.	2A/	-lis
!	!	!	!	!LO:TX:t=P:problem=kreska pseudotaktowa	!	!	!
.	.	.	.	4G/	.	.	.
*xywh-#349:7777,3939,6350,1339	*	*	*	*	*	*	*
1AA	.	1E	.	2A/	.	2c/	pec-
.	.	.	.	2.A/	-ca-	2c/	-ca-
*	*	*Xlig	*	*	*	*	*
=58-	=58-	=58-	=58-	=58-	=58-	=58-	=58-
!	!	!LO:TX:t=P:problem=kreska pseudotaktowa	!	!	!	!	!
2.BB-/	.	1D	-di	.	.	1B-	-ta
.	.	.	.	4G/	ta	.	.
.	.	.	.	1G	mun-	.	.
!LO:TX:t=P:problem=kreska pseudotaktowa	!	!	!	!	!	!	!
4C/	.	.	.	.	.	.	.
1D	.	2r	.	.	.	1A	mu(n)-
!	!	!	!	!LO:TX:t=P:problem=kreska pseudotaktowa	!	!	!
.	.	1d\	mi-	2F#X/	.	.	.
=59-	=59-	=59-	=59-	=59-	=59-	=59-	=59-
!	!	!	!	!LO:TX:t=P:problem=kreska pseudotaktowa	!	!	!
2GG/	di	.	.	1G	-di	4G/	.
.	.	.	.	.	.	4A/	.
!	!	!LO:TX:t=P:problem=kreska pseudotaktowa	!	!	!	!	!
1G	mi-	2d\	-ſe-	.	.	4B-/	.
.	.	.	.	.	.	4c/	.
!	!	!	!	!	!	!LO:TX:t=P:problem=kreska pseudotaktowa	!
.	.	1B-	-re-	2r	.	1d	-di/
!LO:TX:t=P:problem=kreska pseudotaktowa	!	!	!	!	!	!	!
2G\	-ſe-	.	.	1d\	mi-	.	.
=60-	=60-	=60-	=60-	=60-	=60-	=60-	=60-
1F#X	-re-	1A	-re	.	.	2r	.
*	*	*	*	*custos:B	*	*	*
!	!	!	!	!LO:TX:t=P:problem=kreska pseudotaktowa	!	!	!
.	.	.	.	2d\	-ſe-	1d	mi-
*	*	*	*	*xywh-#148:7801,2987,6044,941	*	*	*
1G	-re	1.G	no-	1.B-	-re-	.	.
!	!	!	!	!	!	!LO:TX:t=P:problem=kreska pseudotaktowa	!
.	.	.	.	.	.	2d\	-ſe-
=61-	=61-	=61-	=61-	=61-	=61-	=61-	=61-
1.E-X	no-	.	.	.	.	1.g	-re-
!	!	!	!	!LO:TX:t=P:problem=kreska pseudotaktowa	!	!	!
.	.	2A\	.	2A/	-re	.	.
*	*	*lig	*	*	*	*	*
.	.	1B-	.	4G/	no-	.	.
.	.	.	.	4A/	.	.	.
!LO:TX:t=P:problem=kreska pseudotaktowa	!	!	!	!	!	!	!
2D/	.	.	.	1B-\	.	2f\	-re
=62-	=62-	=62-	=62-	=62-	=62-	=62-	=62-
1C	.	1c	.	.	.	1e-X	no-
.	.	.	.	2A/	.	.	.
!	!	!	!	!LO:TX:t=P:problem=kreska pseudotaktowa	!	!	!
*	*	*Xlig	*	*	*	*	*
*	*	*xywh-#251:1780,3102,5860,874	*	*	*	*	*
!	!	!	!	!	!	!LO:TX:t=P:problem=kreska pseudotaktowa	!
1BB-	-bis	2F,/	-bis	2B-\	-bis	1d	-bis
!	!	!LO:TX:t=P:problem=kreska pseudotaktowa	!	!	!	!	!
.	.	2D/	qui	2F,/	.	.	.
=63-	=63-	=63-	=63-	=63-	=63-	=63-	=63-
*	*	*	*	*	*	*custos:d	*
!	!	!	!	!LO:TX:t=P:problem=kreska pseudotaktowa	!	!	!
2r	.	1G	.	1B-	qui	2r	.
*	*	*	*	*	*	*xywh-#46:7821,1517,6315,813	*
!LO:TX:t=P:problem=kreska pseudotaktowa	!	!	!	!	!	!LO:TX:t=P:problem=kreska pseudotaktowa	!
*	*	*	*	*	*	*	*
2GG/	qui	.	.	.	.	2d\	qui
1D	tol-	2F/	tol-	2A/	tol-	1f	tol-
!	!	!LO:TX:t=P:problem=kreska pseudotaktowa	!	!	!	!	!
.	.	2D/	-lis	2F/	-lis	.	.
=64-	=64-	=64-	=64-	=64-	=64-	=64-	=64-
2D\	-lis	2F/	pec-	2A/	pec-	2f\	-lis
!	!	!	!	!LO:TX:t=P:problem=kreska pseudotaktowa	!	!LO:TX:t=P:problem=kreska pseudotaktowa	!
2AA/	pec-	2F/	-ca-	2A/	-ca-	2c/	pec-
2C/	-ca-	1E	-ta	2G/	-ta	2e\	-ca-
2C/	-ta	.	.	2.A/	mun-	2e\	-ta
=65-	=65-	=65-	=65-	=65-	=65-	=65-	=65-
*lig	*	*	*	*	*	*lig	*
1BB-	mun-	2F/	mun-	.	.	1d	mu(n)-
.	.	.	.	4G/	.	.	.
!	!	!LO:TX:t=P:problem=kreska pseudotaktowa	!	!	!	!	!
.	.	2G/	.	1G	.	.	.
1AA	.	1A	.	.	.	1c	.
.	.	.	.	2F#X/	.	.	.
!	!	!	!	!LO:TX:t=P:problem=kreska pseudotaktowa	!	!	!
*Xlig	*	*	*	*	*	*Xlig	*
=66-	=66-	=66-	=66-	=66-	=66-	=66-	=66-
!LO:TX:t=P:problem=kreska pseudotaktowa	!	!	!	!LO:TX:t=P:problem=kreska pseudotaktowa	!	!LO:TX:t=P:problem=kreska pseudotaktowa	!
1GG	-di	2D,/	-di	1G	-di	1B-	-di
.	.	2.d\	ſuſ-	.	.	.	.
2r	.	.	.	2r	.	2r	.
.	.	4d\	-ci-	.	.	.	.
!	!	!LO:TX:t=P:problem=kreska pseudotaktowa	!	!LO:N:acc=#	!	!	!
2.G\	ſuſ-	2d\	-pe	2.Bn\	ſuſ-	2.d\	ſuſ-
=67-	=67-	=67-	=67-	=67-	=67-	=67-	=67-
.	.	1.G	de-	.	.	.	.
4G\	-ci-	.	.	4Bn\	-ci-	4d\	-ci-
!LO:TX:t=P:problem=kreska pseudotaktowa	!	!	!	!LO:TX:t=P:problem=kreska pseudotaktowa	!	!LO:TX:t=P:problem=kreska pseudotaktowa	!
2G\	-pe	.	.	2Bn\	-pe-	2d\	-pe
1.C	de-	.	.	1c	-de-	1.e	de-
.	.	2G/	-pre-	.	.	.	.
=68-	=68-	=68-	=68-	=68-	=68-	=68-	=68-
!	!	!	!	!LO:TX:t=P:problem=kreska pseudotaktowa	!	!	!
.	.	1.c	-ca-	1G	-pre-	.	.
2C/	pre-	.	.	.	.	2e\	-pre-
1F	-ca-	.	.	4A/	-ca-	1.f	-ca-
.	.	.	.	4B-\	.	.	.
!	!	!LO:TX:t=P:problem=kreska pseudotaktowa	!	!	!	!	!
.	.	2A/	-ti-	4c\	.	.	.
.	.	.	.	4A/	.	.	.
=69-	=69-	=69-	=69-	=69-	=69-	=69-	=69-
*custos:E	*	*	*	*	*	*	*
!LO:TX:t=P:problem=kreska pseudotaktowa	!	!	!	!	!	!	!
1D	-ti-	2.B-\	-o-	1d	.	.	.
!	!	!	!	!	!	!LO:TX:t=P:problem=kreska pseudotaktowa	!
.	.	.	.	.	.	2f\	-ti-
.	.	4A,/	-nem	.	.	.	.
*xywh-#350:1555,714,6128,1029	*	*	*	*	*	*	*
*	*	*	*	*custos:e	*	*	*
2E-X\	-o-	4G/	no-	2B-\	-ti-	2g\	-o-
.	.	4A/	.	.	.	.	.
*	*	*	*	*xywh-#148:7795,3775,6172,1319	*	*	*
!LO:TX:t=P:problem=kreska pseudotaktowa	!	!	!	!	!	!	!
2E-X\	-nem	4B-\	.	1e\	-o-	2g\	-ne(m)
!	!	!LO:TX:t=P:problem=kreska pseudotaktowa	!	!	!	!	!
.	.	4G/	.	.	.	.	.
=70-	=70-	=70-	=70-	=70-	=70-	=70-	=70-
0.F	no-	2A/	.	.	.	0.f	noſ-
!	!	!	!	!LO:TX:t=P:problem=kreska pseudotaktowa	!	!	!
.	.	1B-	.	2d\	-nem	.	.
.	.	.	.	0c	noſ-	.	.
.	.	4A/	.	.	.	.	.
.	.	4G/	.	.	.	.	.
=71-	=71-	=71-	=71-	=71-	=71-	=71-	=71-
*	*	*custos:B	*	*	*	*	*
!	!	!LO:TX:t=P:problem=kreska pseudotaktowa	!	!	!	!	!
.	.	1A	.	.	.	.	.
*	*	*xywh-#251:1780,3908,5846,1019	*	*	*	*	*
!	!	!LO:TX:t=P:problem=kreska pseudotaktowa	!	!LO:TX:t=P:problem=kreska pseudotaktowa	!	!	!
2BB-/	-ſtram	1B-	-ſtram	1d	-tram	2f,\	-tra(m)
!	!	!	!	!	!	!LO:TX:t=P:problem=kreska pseudotaktowa	!
2B-\	qui	.	.	.	.	2f\	qui
=72-	=72-	=72-	=72-	=72-	=72-	=72-	=72-
!LO:TX:t=P:problem=kreska pseudotaktowa	!	!	!	!	!	!	!
1G	ſe-	1r	.	0r	.	4B-/	.
.	.	.	.	.	.	4c/	.
.	.	.	.	.	.	4d\	ſe-
!	!	!	!	!	!	!LO:TX:t=P:problem=kreska pseudotaktowa	!
.	.	.	.	.	.	4e\	.
2F\	-des	2r	.	.	.	2f\	.
!	!	!LO:TX:t=P:problem=kreska pseudotaktowa	!	!	!	!LO:TX:t=P:problem=kreska pseudotaktowa	!
2F\	ad	2f\	qui	.	.	2c/	.
=73-	=73-	=73-	=73-	=73-	=73-	=73-	=73-
4BB-/	dex-	1d	ſe-	0r	.	2B-,/	-des
4C/	.	.	.	.	.	.	.
4D/	.	.	.	.	.	1B-	ad
!LO:TX:t=P:problem=kreska pseudotaktowa	!	!	!	!	!	!	!
4E\	.	.	.	.	.	.	.
2.F\	.	2c\	-des	.	.	.	.
!	!	!LO:TX:t=P:problem=kreska pseudotaktowa	!	!	!	!LO:TX:t=P:problem=kreska pseudotaktowa	!
.	.	2f\	.	.	.	2A/	dex-
4F\	-te-	.	.	.	.	.	.
=74-	=74-	=74-	=74-	=74-	=74-	=74-	=74-
2G\	-ram	4B-\	ad	2r	.	2d\	-te-
.	.	4c\	dex-	.	.	.	.
*	*	*	*	*	*	*custos:c	*
2G\	Pat-	4d\	.	1B-	mi-	2B-/	-ram
.	.	4e\	.	.	.	.	.
*	*	*	*	*	*	*xywh-#46:7821,2302,6303,860	*
!LO:TX:t=P:problem=kreska pseudotaktowa	!	!	!	!	!	!	!
1F	-ris	2.f\	-te-	.	.	1c	Pat-
!	!	!	!	!LO:TX:t=P:problem=kreska pseudotaktowa	!	!	!
.	.	.	.	2A/	ſe-	.	.
!	!	!LO:TX:t=P:problem=kreska pseudotaktowa	!	!	!	!	!
.	.	4f\	-ram	.	.	.	.
=75-	=75-	=75-	=75-	=75-	=75-	=75-	=75-
2r	.	2d,\	.	1B-	-re-	1B-	-ris
1BB-	mi-	2B-\	Pat-	.	.	.	.
!	!	!LO:TX:t=P:problem=kreska pseudotaktowa	!	!LO:TX:t=P:problem=kreska pseudotaktowa	!	!LO:TX:t=P:problem=kreska pseudotaktowa	!
.	.	1F	-ris	1c	-re	1f	mi-
2AA/	-ſe-	.	.	.	.	.	.
=76-	=76-	=76-	=76-	=76-	=76-	=76-	=76-
1BB-	-re-	2.B-\	mi-	1d	no-	2d\	-ſe-
.	.	.	.	.	.	1f	-re-
.	.	4B-\	-ſe-	.	.	.	.
1C	-re	2G/	-re-	1.c	.	.	.
.	.	2G/	-re	.	.	2e\	-re
=77-	=77-	=77-	=77-	=77-	=77-	=77-	=77-
0D	no-	0F	no-	.	.	0f	no-
.	.	.	.	4B-\	.	.	.
.	.	.	.	4A\	.	.	.
!	!	!	!	!LO:TX:t=P:problem=kreska pseudotaktowa	!	!	!
!	!	!	!	!LO:N:acc=#	!	!	!
.	.	.	.	1Bn	.	.	.
=78-	=78-	=78-	=78-	=78-	=78-	=78-	=78-
!LO:TX:t=P:problem=kreska pseudotaktowa	!	!LO:TX:t=P:problem=kreska pseudotaktowa	!	!LO:TX:t=P:problem=kreska pseudotaktowa	!	!LO:TX:t=P:problem=kreska pseudotaktowa	!
1C	-bis	1G	-bis	1c,	-bis	1e	-bis
2.F\	Quo-	1r	.	2.A/	Quo-	1r	.
!	!	!	!	!LO:TX:t=P:problem=kreska pseudotaktowa	!	!	!
4F\	-ni-	.	.	4A/	-ni-	.	.
=79-	=79-	=79-	=79-	=79-	=79-	=79-	=79-
2F\	-am	0r	.	2A/	-am	0r	.
2D/	tu	.	.	2d\	tu	.	.
4E\	ſo-	.	.	2c\	ſo-	.	.
*custos:G	*	*	*	*	*	*	*
4F\	-l(us)	.	.	.	.	.	.
*xywh-#350:1548,1674,6142,862	*	*	*	*	*	*	*
!	!	!	!	!LO:TX:t=P:problem=kreska pseudotaktowa	!	!	!
1G\	San-	.	.	2B-\	-lus	.	.
=80-	=80-	=80-	=80-	=80-	=80-	=80-	=80-
.	.	1r	.	1A	San-	1r	.
!LO:TX:t=P:problem=kreska pseudotaktowa	!	!	!	!	!	!	!
2F#X\	-ct(us)	.	.	.	.	.	.
!	!	!	!	!LO:TX:t=P:problem=kreska pseudotaktowa	!	!	!
1G	.	2.B-\	Quo-	1G	-ct(us)	2.d\	Quo-
.	.	4B-\	-ni-	.	.	4d\	-ni-
=81-	=81-	=81-	=81-	=81-	=81-	=81-	=81-
0r	.	2B-\	-am	0r	.	2d\	-am
!	!	!	!	!	!	!LO:TX:t=P:problem=kreska pseudotaktowa	!
!	!	!LO:TX:t=P:problem=kreska pseudotaktowa	!	!	!	!LO:TX:a:t=ponownie tekst się przesuwa	!
.	.	2G/	tu	.	.	2g\	tu
.	.	4A\	ſo-	.	.	2f\	ſo-
.	.	4B-\	-lus	.	.	.	.
.	.	1c\	Do-	.	.	2e\	-lus
=82-	=82-	=82-	=82-	=82-	=82-	=82-	=82-
2r	.	.	.	1r	.	1d	ſan-
!	!	!LO:N:acc=#	!	!	!	!	!
!LO:TX:t=P:problem=kreska pseudotaktowa	!	!LO:TX:a:t=P:problem=# above	!	!	!	!	!
2G\	tu	2Bn\	-mi-	.	.	.	.
!	!	!LO:TX:t=P:problem=kreska pseudotaktowa	!	!	!	!LO:TX:t=P:problem=kreska pseudotaktowa	!
2E\	ſo-	1c	-n(us)	2r	.	1e	-ct(us)
!	!	!	!	!LO:TX:t=P:problem=kreska pseudotaktowa	!	!	!
2C/	-lus	.	.	2c\	tu	.	.
=83-	=83-	=83-	=83-	=83-	=83-	=83-	=83-
4D/	.	1r	.	2A/	ſo-	0r	.
4E\	.	.	.	.	.	.	.
*	*	*	*	*custos:G	*	*	*
!	!	!	!	!LO:TX:t=P:problem=kreska pseudotaktowa	!	!	!
1F	D(o-	.	.	2A/	-lus	.	.
*	*	*	*	*xywh-#149:1605,546,6114,1094	*	*	*
*	*	*custos:c	*	*	*	*	*
.	.	2r	.	2.G/	Do-	.	.
*	*	*xywh-#251:7847,639,6301,984	*	*	*	*	*
!	!	!LO:TX:t=P:problem=kreska pseudotaktowa	!	!	!	!	!
2E\	-mi)-	2c\	tu	.	.	.	.
.	.	.	.	4G/	-mi-	.	.
=84-	=84-	=84-	=84-	=84-	=84-	=84-	=84-
!LO:TX:t=P:problem=kreska pseudotaktowa	!	!	!	!LO:TX:t=P:problem=kreska pseudotaktowa	!	!	!
1F	-nus	2A/	So-	1F	-nus	2r	.
!	!	!	!	!	!	!LO:TX:t=P:problem=kreska pseudotaktowa	!
.	.	4F/	-lus	.	.	2f\	tu
.	.	4F/	al-	.	.	.	.
1r	.	2B-\	-tiſ-	1r	.	2d\	.
!	!	!LO:TX:t=P:problem=kreska pseudotaktowa	!	!	!	!	!
.	.	2A\	.	.	.	4c/	.
.	.	.	.	.	.	4c/	ſo-
=85-	=85-	=85-	=85-	=85-	=85-	=85-	=85-
0r	.	2.B-\	.	0r	.	4d\	-lus
.	.	.	.	.	.	4e\	Al-
.	.	.	.	.	.	1f	-tiſ-
.	.	4A/	.	.	.	.	.
.	.	2G/	.	.	.	.	.
!	!	!	!	!	!	!LO:TX:t=P:problem=kreska pseudotaktowa	!
.	.	2G/	-ſi-	.	.	2e\	-si-
=86-	=86-	=86-	=86-	=86-	=86-	=86-	=86-
!LO:TX:t=P:problem=kreska pseudotaktowa	!	!LO:TX:t=P:problem=kreska pseudotaktowa	!	!	!	!	!
1r	.	1F	-mus	1r	.	1f	-mus
0BB-	Je-	0B-	Je-	2r	.	0d	Je-
.	.	.	.	1F/	Je-	.	.
=87-	=87-	=87-	=87-	=87-	=87-	=87-	=87-
.	.	.	.	.	.	.	.
.	.	.	.	1D	-ſu	.	.
1GG	-ſu	1B-	-ſu	.	.	0d	-ſu
.	.	.	.	1G/	Chri-	.	.
=88-	=88-	=88-	=88-	=88-	=88-	=88-	=88-
1.D	Chri-	1.A	Chri-	.	.	.	.
!	!	!	!	!LO:TX:t=P::problem=kreska pseudotaktowa&colon;między nutą a kropką	!	!	!
.	.	.	.	2.F/	.	.	.
.	.	.	.	.	.	2f\	Chri-
.	.	.	.	4G/	.	.	.
!	!	!LO:TX:t=P:problem=kreska pseudotaktowa	!	!	!	!	!
2C/	.	2E/	.	2.A/	.	2e\	.
=89-	=89-	=89-	=89-	=89-	=89-	=89-	=89-
*	*	*	*	*	*	*custos:c	*
!	!	!	!	!	!	!LO:TX:t=P:problem=kreska pseudotaktowa	!
!LO:TX:t=P:problem=kreska pseudotaktowa	!	!	!	!	!	!	!
1BB-	.	2F/	.	.	.	1d	.
.	.	.	.	4G/	.	.	.
.	.	2G/	.	1G	.	.	.
*	*	*	*	*	*	*xywh-#46:7872,3070,6326,860	*
0AA	.	0A	.	.	.	0c	.
.	.	.	.	4F/	.	.	.
!	!	!	!	!LO:TX:t=P:problem=kreska pseudotaktowa	!	!	!
.	.	.	.	4E/	.	.	.
=90-	=90-	=90-	=90-	=90-	=90-	=90-	=90-
.	.	.	.	1F#X	.	.	.
!	!	!	!	!	!	!LO:TX:b:t=P:problem=# below	!
!	!	!LO:TX:t=P:problem=kreska pseudotaktowa	!	!	!	!LO:N:acc=#	!
2GG,/	-ſte	1d	-ſte	2G,/	-ſte	2Bn/	-ſte
!	!	!	!	!LO:TX:t=P:problem=kreska pseudotaktowa	!	!LO:TX:t=P:problem=kreska pseudotaktowa	!
2G\	cum	.	.	2B-\	cu(m)	2d\	Cum
=91-	=91-	=91-	=91-	=91-	=91-	=91-	=91-
2F#X\	Sa(n)-	0r	.	2A\	San-	2d\	San-
!LO:TX:t=P:problem=kreska pseudotaktowa	!	!	!	!LO:TX:t=P:problem=kreska pseudotaktowa	!	!	!
2G\	-cto	.	.	2B-\	-cto	2d\	-cto
2.C/	Spi-	.	.	2.c\	Spi-	2.e\	ſpi-
!	!	!	!	!LO:TX:t=P:problem=kreska pseudotaktowa	!	!LO:TX:t=P:problem=kreska pseudotaktowa	!
4C/	-ri-	.	.	4c\	-ri-	4e\	-ri-
=92-	=92-	=92-	=92-	=92-	=92-	=92-	=92-
!LO:TX:t=P:problem=kreska pseudotaktowa	!	!	!	!	!	!	!
1C	-tu	2r	.	2c\	-tu	2e,\	-tu
!	!	!	!	!LO:TX:t=P:problem=kreska pseudotaktowa	!	!	!
.	.	2e\	cum	2c\	cu(m)	2g\	Cum
!	!	!	!	!LO:N:acc=#	!	!	!
1r	.	2d\	San-	2Bn\	San-	2g\	San-
!	!	!LO:TX:t=P:problem=kreska pseudotaktowa	!	!LO:TX:t=P:problem=kreska pseudotaktowa	!	!LO:TX:t=P:problem=kreska pseudotaktowa	!
.	.	2e\	-cto	2c\	-cto	2g\	-cto
=93-	=93-	=93-	=93-	=93-	=93-	=93-	=93-
1r	.	2.f\	Spi-	2.F/	ſpi-	2.a\	ſpi-
!	!	!	!	!LO:TX:t=P:problem=kreska pseudotaktowa	!	!	!
.	.	4f\	-ri-	4F/	-ri-	4a\	-ri-
2r	.	2e,\	-tu	2c\	-tu	2g,\	-tu
*	*	*	*	*xywh-#149:1778,1520,5803,806	*	*	*
!LO:TX:t=P:problem=kreska pseudotaktowa	!	!LO:TX:t=P:problem=kreska pseudotaktowa	!	!LO:TX:t=P:problem=kreska pseudotaktowa	!	!LO:TX:t=P:problem=kreska pseudotaktowa	!
2C/	/cum	2c\	/cum	2G/	/Cum	2e\	/Cum
=94-	=94-	=94-	=94-	=94-	=94-	=94-	=94-
!LO:N:acc=#	!	!	!	!	!	!	!
2BBn/	Sa(n)-	2d\	San-	2G/	San-	2d\	San-
*custos:FF	*	*	*	*	*	*	*
!LO:TX:t=P:problem=kreska pseudotaktowa	!	!	!	!	!	!	!
!	!	!LO:TX:t=P:problem=kreska pseudotaktowa	!	!	!	!	!
2C/	-cto	2c\	-cto	2G/	-cto	2e\	-cto
*xywh-#350:1583,2460,6253,827	*	*xywh-#251:7833,1492,6280,922	*	*	*	*	*
2.FF/	Spi-	2.c\	Spi-	2.A/	ſpi-	2.f\	ſpi-
!	!	!LO:TX:t=P:problem=kreska pseudotaktowa	!	!LO:TX:t=P:problem=kreska pseudotaktowa	!	!	!
4FF/	-ri-	4c\	-ri-	4A/	-ri-	4f\	-ri-
=95-	=95-	=95-	=95-	=95-	=95-	=95-	=95-
!LO:TX:t=P:problem=kreska pseudotaktowa	!	!	!	!LO:TX:t=P:problem=kreska pseudotaktowa	!	!LO:TX:t=P:problem=kreska pseudotaktowa	!
1C	-tu/	2c,\	-tu/	0G	-tu/	1e	-tu/
!	!	!LO:TX:t=P:problem=kreska pseudotaktowa	!	!	!	!	!
.	.	2c\	in	.	.	.	.
2r	.	2B-\	glo-	.	.	1r	.
!LO:TX:t=P:problem=kreska pseudotaktowa	!	!	!	!	!	!	!
2G\	in	4B-\	-ri-	.	.	.	.
!	!	!LO:TX:t=P:problem=kreska pseudotaktowa	!	!	!	!	!
.	.	4B-\	-a	.	.	.	.
=96-	=96-	=96-	=96-	=96-	=96-	=96-	=96-
2F\	glo-	2A/	De-	0r	.	1r	.
!	!	!LO:TX:t=P:problem=kreska pseudotaktowa	!	!	!	!	!
4F\	-ri-	2F/	-i	.	.	.	.
!LO:TX:t=P:problem=kreska pseudotaktowa	!	!	!	!	!	!	!
4F\	-a	.	.	.	.	.	.
2E\	De-	2.G/	Pa-	.	.	2r	.
!LO:TX:t=P:problem=kreska pseudotaktowa	!	!	!	!	!	!LO:TX:t=P:problem=kreska pseudotaktowa	!
2C/	-i	.	.	.	.	2g\	in
.	.	4A/	.	.	.	.	.
=97-	=97-	=97-	=97-	=97-	=97-	=97-	=97-
4D/	Pa-	4B-\	.	2r	.	2f\	glo-
4E\	.	8A/L	.	.	.	.	.
.	.	8G/J	.	.	.	.	.
!	!	!	!	!LO:TX:t=P:problem=kreska pseudotaktowa	!	!	!
4F\	.	2A/	.	2d\	in	4f\	ri-
4G\	.	.	.	.	.	4f\	-a
!	!	!LO:TX:t=P:problem=kreska pseudotaktowa	!	!	!	!	!
1A	.	1A	-tris	2c\	glo-	2e\	De-
!	!	!	!	!	!	!LO:TX:t=P:problem=kreska pseudotaktowa	!
.	.	.	.	4c\	-ri-	2c/	-i
!	!	!	!	!LO:TX:t=P:problem=kreska pseudotaktowa	!	!	!
.	.	.	.	4c\	-a	.	.
=98-	=98-	=98-	=98-	=98-	=98-	=98-	=98-
!LO:TX:t=P:problem=kreska pseudotaktowa	!	!	!	!	!	!	!
1G	-tris	2r	.	2B-\	De-	2.d\	Pa-
.	.	2G/	in	2G/	-i	.	.
.	.	.	.	.	.	4e\	.
2r	.	2F/	glo-	2.A/	Pa-	4f\	.
.	.	.	.	.	.	4e\	.
!LO:TX:t=P:problem=kreska pseudotaktowa	!	!	!	!	!	!	!
2D/	in	4F/	-ri-	.	.	4f\	.
*	*	*	*	*	*	*custos:e	*
!	!	!	!	!	!	!LO:TX:t=P:problem=kreska pseudotaktowa	!
!	!	!LO:TX:t=P:problem=kreska pseudotaktowa	!	!LO:TX:t=P:problem=kreska pseudotaktowa	!	!	!
.	.	4F/	-a	4B-\	.	4d\	.
=99-	=99-	=99-	=99-	=99-	=99-	=99-	=99-
*	*	*	*	*	*	*xywh-#46:7861,3763,6234,1431	*
2C/	glo-	2E/	De-	4c\	.	4e\	.
.	.	.	.	4d\	.	4f\	.
4C/	-ri-	2C/	-i	2e\	.	4g\	.
!	!	!	!	!	!	!LO:TX:t=P:problem=kreska pseudotaktowa	!
4C/	-a	.	.	.	.	4e\	.
!	!	!LO:TX:t=P:problem=kreska pseudotaktowa	!	!	!	!	!
2BB-/	De-	1D	Pat-	2d\	-tris	2f\	.
!LO:TX:t=P:problem=kreska pseudotaktowa	!	!	!	!	!	!	!
2GG/	-i	.	.	4r	.	1g\	.
!	!	!	!	!LO:TX:t=P:problem=kreska pseudotaktowa	!	!	!
.	.	.	.	4d\	in	.	.
=100-	=100-	=100-	=100-	=100-	=100-	=100-	=100-
1AA	Pa-	1A,	-ris	2c\	glo-	.	.
!	!	!	!	!	!	!LO:TX:t=P:problem=kreska pseudotaktowa	!
.	.	.	.	4c\	-ri-	2f#X\	-tris
!	!	!	!	!LO:TX:t=P:problem=kreska pseudotaktowa	!	!	!
.	.	.	.	4c\	-a	.	.
4GG/	.	4B-\	De-	2B-\	De-	2r	.
4AA/	.	4c\	.	.	.	.	.
!	!	!	!	!LO:TX:t=P:problem=kreska pseudotaktowa	!	!	!
4BB-/	.	1d\	.	2G,/	-i	2g\	in
!LO:TX:t=P:problem=kreska pseudotaktowa	!	!	!	!	!	!	!
4GG/	.	.	.	.	.	.	.
=101-	=101-	=101-	=101-	=101-	=101-	=101-	=101-
2D/	.	.	.	2A/	Pa-	2f\	glo-
!	!	!LO:TX:t=P:problem=kreska pseudotaktowa	!	!LO:TX:t=P:problem=kreska pseudotaktowa	!	!	!
2BB-/	.	2d\	-i	2B-\	.	4f\	-ri-
!	!	!	!	!	!	!LO:TX:t=P:problem=kreska pseudotaktowa	!
.	.	.	.	.	.	4f\	-a
1C	.	1.c	Pa-	2G/	.	2e\	De-
*	*	*	*	*custos:F	*	*	*
!	!	!	!	!LO:TX:t=P:problem=kreska pseudotaktowa	!	!	!
.	.	.	.	2A/	.	2e\	-i
=102-	=102-	=102-	=102-	=102-	=102-	=102-	=102-
*	*	*	*	*xywh-#149:1657,2269,5970,858	*	*	*
!	!	!	!	!LO:TX:b:t=P:problem=# below	!	!	!
0D	.	.	.	2F#X/	.	0d	Pat-
.	.	2B-\	.	1G	.	.	.
.	.	1A	.	.	.	.	.
!	!	!	!	!LO:TX:t=P:problem=kreska pseudotaktowa	!	!	!
!	!	!	!	!LO:TX:b:t=P:problem=# below	!	!	!
.	.	.	.	2F#X/	.	.	.
=103-	=103-	=103-	=103-	=103-	=103-	=103-	=103-
!	!	!LO:TX:t=P:problem=kreska pseudotaktowa	!	!	!	!	!
!	!	!LO:TX:a:t=P:problem=# above	!	!	!	!	!
!LO:TX:t=P:problem=kreska pseudotaktowa	!	!LO:N:acc=#	!	!LO:TX:t=P:problem=kreska pseudotaktowa	!	!LO:TX:t=P:problem=kreska pseudotaktowa	!
1GG	-tris	1Bn	-tris	1G	-tris	1d	-ris
2r	.	2r	.	2r	.	2r	.
1C/	A-	1e-X\	A-	1G/	A-	1c\	A-
=104-	=104-	=104-	=104-	=104-	=104-	=104-	=104-
.	.	.	.	.	.	.	.
!LO:N:acc=#	!	!	!	!LO:TX:t=P:problem=kreska pseudotaktowa	!	!LO:TX:t=P:problem=kreska pseudotaktowa	!
2BBn/	.	2d\	.	2G/	men	2d/	.
0C	.	0c	.	0G	/A-	0e-X	.
=105-	=105-	=105-	=105-	=105-	=105-	=105-	=105-
.	.	.	.	.	.	.	.
!	!	!LO:N:acc=#	!	!	!	!	!
!	!	!LO:TX:a:t=P:problem=# above	!	!	!	!LO:TX:t=P:problem=fermata powyżej i poniżej	!
1GG;	-men.	1Bn;	-men	1G;	-men/	1d;	-men.
==	==	==	==	==	==	==	==
*-	*-	*-	*-	*-	*-	*-	*-
!!!system-decoration: [(s1,s2,s3,s4)]
!!!RDF**kern: > = above
!!!RDF**kern: < = below
!!!RDF**kern: | = vertical stroke
!!!RDF**kern: N = linked
!!!RDF**kern: i = editorial accidental
!!!RDF**kern: l = terminal long
!!!ENC: Filip Voros
!!!END: 2022-01-09
!!!EED: Wojciech Jakubiak-Danek
!!!EEV: 2021-01-15
!!!ENC-iiif: Natalia Wrzos
!!!END-iiif: 2022-09-02
!!!YEC: Copyright 2022 Narodowy Instytut Fryderyka Chopina (https://polishscores.org)
!!!YEM: License CC-BY-4.0 (https://creativecommons.org/licenses/by/4.0)
